X:1
T:Dichterliebe, Op.48
T:Ich grolle nicht
T:7. Ich grolle nicht
T:Robert Schumann
T:Dichterliebe, Op.48
T:Heinrich Heine
T:OpenScore (CC0)
T:OpenScore (CC0)
C:Robert Schumann
Z:Heinrich Heine
Z:OpenScore (CC0)
%%score ( 1 2 ) { 3 | ( 4 5 ) }
L:1/8
Q:1/4=65
M:4/4
K:C
V:1 treble nm="Voice"
V:2 treble 
V:3 treble nm="Piano"
V:4 bass 
V:5 bass 
V:1
"^Nicht zu schnell" z4 z!mf! E D3/2 C/ | F4 z F F F | _A6- A G | E4 z4 | E2 E E B3 A | A4 z4 | %6
w: Ich grol- le|nicht, und wenn das|Herz _ auch|bricht.|E- wig ver- lor'- nes|Lieb,|
 A2 A A e3 d | d4- d3 d | d4- d3 c | B4 z2 z G | G4- G3 F | E4 z E E E | !>!A4 z E E3/2 E/ | %13
w: e- wig ver- lor'- nes|Lieb, _ ich|grol- * le|nicht, ich|grol- * le|nicht. Wie du auch|strahlst in Di- a-|
 A3/2 E/ E2 z ^F F F | B4 z ^F F F | B3/2 ^F/ F2 z!f!"^ritard."[Q:1/4=63] G G[Q:1/4=61] G | %16
w: man- ten- pracht, es fällt kein|Strahl in dei- nes|Her- zens Nacht, das weiss ich|
 G8-[Q:1/4=59][Q:1/4=57] |[Q:1/4=59] G4[Q:1/4=63] z4[Q:1/4=61][Q:1/4=65] | z4 z!f! E D3/2 C/ | %19
w: längst.|_|Ich grol- le|
 F4 z F F F | _A6- A G | E4 z2 z!p! E | E3 E B3 B | A2 A2 z A A A | A!<(! A A A e3 e!<)! | %25
w: nicht, und wenn das|Herz _ auch|bricht. Ich|sah dich ja im|Trau- me, und sah die|Nacht in dei- nes Her- zens|
!mp! d2 d2 z d d d |"^cresc." d d d d d3 d |!mf! (g4[Q:1/4=63]"^cresc." f) f[Q:1/4=62] f f | %28
w: Rau- me, und sah die|Schlang', die dir am Her- zen||
[Q:1/4=60] f f[Q:1/4=58] f f[Q:1/4=56] e3 d[Q:1/4=54] |!f! c2 x2[Q:1/4=56] x4 | A4 z G G G | C8- | %32
w: ||nicht, ich grol- le|nicht.|
 C4 z4 | z8 | z8 | z2 |] %36
w: _||||
V:2
 x8 | x8 | x8 | x8 | x8 | x8 | x8 | x8 | x8 | x8 | x8 | x8 | x8 | x8 | x8 | x8 | x8 | x8 | x8 | %19
w: |||||||||||||||||||
 x8 | x8 | x8 | x8 | x8 | x8 | x8 | x4 a3 a | (d4 ^c) c c c | =c c c c B3 B | c2 z2 z!f! B B B | %30
w: ||||||||frisst, * ich sah, mein|Lieb, wie sehr du e- lend|bist. Ich grol- le|
 x8 | x8 | x8 | x8 | x8 | x2 |] %36
w: ||||||
V:3
!mf! !>![G,CE][G,CE][G,CE][G,CE] !>![G,CE][G,CE][G,CE][G,CE] | %1
 !>![F,CF][F,CF][F,CF][F,CF] !>![A,CF][A,CF][A,CF][A,CF] | %2
 !>![_A,CF][A,CF][A,CF][A,CF] !>![G,B,DF][G,B,DF][G,B,DF][G,B,DF] | %3
 !>![G,CE][G,CE][G,CE][G,CE] !>![^G,CE][G,CE][G,CE][A,CE] | %4
 !>![A,CE][A,CE][A,CE][A,CE] !>![CEB][CEB][CEB][CEB] | %5
 !>![CEA][CEA][CEA][CEA] !>![CGA][CGA][CGA][CGA] | %6
 !>![CFA][CFA][CFA][CFA] !>![FAe][FAe][FAe][FAe] | %7
 !>![FAd][FAd][FAd][FAd] !>![Fcd][Fcd][Fcd][Fcd] | %8
 !>![FBd][FBd][FBd][FBd] !>![D^Fc][DFc][DFc][DFc] | !>![DGB][DGB][DGB][DGB] [C=FA][CFA][CFA][CFA] | %10
 [G,^CEG][G,CEG][G,CEG][G,CEG] [G,DF][G,DF][G,DF][G,DF] | %11
 [G,CE][G,CE][G,CE][G,CE] [G,B,E][G,B,E][G,B,E][G,B,E] | %12
 !>![CEA][CEA][CEA][CEA] [G,B,E][G,B,E][G,B,E][G,B,E] | %13
 !>![CEA][CEA][CEA][CEA] [^A,^C^F][A,CF][A,CF][A,CF] | %14
 !>![D^FB][DFB][DFB][DFB] [^A,^CF][A,CF][A,CF][A,CF] | %15
 !>![D^FB][DFB][DFB][DFB]"^ritard." [B,DG][B,D=FG][B,DFG][B,DFG] | %16
 [B,DFG][B,DFG][B,DFG][B,DFG]!<(! [CFG][CFG][CFG][CFG] | %17
 [G,^CEG][G,CEG][G,CEG][G,CEG]!<)! [G,DFG][G,DFG][G,DFG][G,DFG] | %18
!f! [G,CE][G,CE][G,CE][G,CE] [G,CE][G,CE][G,CE][G,CE] | %19
 [F,CF][F,CF][F,CF][F,CF] [A,CF][A,CF][A,CF][A,CF] | %20
 [_A,CF][A,CF][A,CF][A,CF] [G,B,DF][G,B,DF][G,B,DF][G,B,DF] | %21
!>(! [G,CE][G,CE][G,CE][G,CE] [^G,CE][G,CE][G,CE][G,CE]!>)! | %22
!p! [A,CE][A,CE][A,CE][A,CE] [CEB][CEB][CEB][CEB] | [CEA][CEA][CEA][CEA] [CGA][CGA][CGA][CGA] | %24
!<(! [CFA][CFA][CFA][CFA] [FAe][FAe][FAe][FAe]!<)! | %25
!mp! [FAd][FAd][FAd][FAd] [Fcd][Fcd][Fcd][Fcd] | %26
"_cresc." [FBd][FBd][FBd][FBd] [Bda][Bda][Bda][Bda] | %27
!mf! [_Bdg]!mp![Bdg][Bdg][Bdg]!mf!"^cresc." [A^cf]!mp![Acf][Acf][Acf] | %28
!mf!!<(! [_A=cf][Acf][Acf][Acf] [GBe][GBe][GBe]!<)![FBd] | %29
!f! !>![EGc]!mf![EGc][EGc][EGc]!f! !>![D^GB]!mf![DGB][DGB][DGB] | %30
!f! !>![CFA]!mf![CFA][CFA][CFA]!f! !>![B,DF=G]!mf![B,DFG][B,DFG][B,DFG] | %31
 C [G,C][G,C][G,C] [G,C][A,C][A,C][A,C] |!mp! [A,C]!<(! [CG][CG][CG]!mf! [CG][Cc][Cc]!<)![Cc] | %33
!f! [Cc] [CGc][CGc][CGc] [CGc][CAc][CAc][CAc] | %34
 [CAc][CG][CE]C!f![I:staff +1] [E,G,][I:staff -1] z!f![I:staff +1] [D,G,][I:staff -1] z | %35
!f![I:staff +1] [E,G,][I:staff -1] z |] %36
V:4
 z4 [C,,C,]4 | [A,,,A,,]4 [F,,,F,,]4 | [D,,,D,,]4 [G,,,G,,]4 | [C,,C,]4 [B,,,B,,]4 | %4
 [A,,,A,,]4 [G,,,G,,]4 | [F,,,F,,]4 [E,,,E,,]4 | [D,,,D,,]4 [C,,,C,,]4 | [B,,,B,,]4 [A,,,A,,]4 | %8
 [G,,,G,,]8- | [G,,,G,,]4 [A,,,A,,]4 | [^A,,,^A,,]4 [B,,,B,,]4 | [C,,C,]4!f! [E,,E,]4 | %12
 [A,,,A,,]4!f! [E,,E,]4 | [A,,,A,,]4!f! [^F,,^F,]4 | [B,,,B,,]4 [^F,,^F,]4 | %15
 [B,,,B,,]4!f! [G,,G,]4 | [G,,,G,,]4 [A,,,A,,]4 | [^A,,,^A,,]4 [B,,,B,,]4 | [C,,C,]4 [C,,,C,,]4 | %19
 [A,,,A,,]4 [F,,,F,,]4 | [D,,,D,,]4 [G,,,G,,]4 | [C,,C,]4 [B,,,B,,]4 | [A,,,A,,]4 [G,,,G,,]4 | %23
 [F,,,F,,]4 [E,,,E,,]4 | [D,,,D,,]4 [C,,,C,,]4 | [B,,,B,,]4 [A,,,A,,]4 | [G,,,G,,]4 [F,,,F,,]4 | %27
 [E,,,E,,]4 [A,,,A,,]4 | [D,,D,]4 [G,,G,]4 | !>![C,,C,]4 !>![E,,E,]4 | !>![F,,F,]4 !>![G,,G,]4 | %31
 z [E,,C,][E,,C,][E,,C,] [E,,C,][F,,C,][F,,C,][F,,C,] | %32
 [C,,F,,C,] [G,,E,][G,,E,][G,,E,] [G,,E,][A,,F,][A,,F,][A,,F,] | %33
 [A,,F,] [E,G,][E,G,][E,G,] [E,G,][F,A,][F,A,][F,A,] | %34
 [F,A,][E,G,][E,G,][C,E,] [G,,C,] z [G,,B,,] z | [C,,G,,C,] z |] %36
V:5
 x8 | x8 | x8 | x8 | x8 | x8 | x8 | x8 | x8 | x8 | x8 | x8 | x8 | x8 | x8 | x8 | x8 | x8 | x8 | %19
 x8 | x8 | x8 | x8 | x8 | x8 | x8 | x8 | x8 | x8 | x8 | x8 | !>!C,,8- | x8 | x G,,3- G,,4- | %34
 G,,4 x4 | x2 |] %36

